SVG_Azure_Grouped/Dynamics 365/Application Return To School.svg

<?xml version="1.0" encoding="UTF-8" standalone="no"?>
<!-- Generated by Microsoft Visio, SVG Export Application Return To School.svg Page-1 -->

<svg
   xmlns:dc="http://purl.org/dc/elements/1.1/"
   xmlns:cc="http://creativecommons.org/ns#"
   xmlns:rdf="http://www.w3.org/1999/02/22-rdf-syntax-ns#"
   xmlns:svg="http://www.w3.org/2000/svg"
   xmlns="http://www.w3.org/2000/svg"
   xmlns:sodipodi="http://sodipodi.sourceforge.net/DTD/sodipodi-0.dtd"
   xmlns:inkscape="http://www.inkscape.org/namespaces/inkscape"
   width="0.69823766in"
   height="0.70364803in"
   viewBox="0 0 50.27311 50.662577"
   xml:space="preserve"
   class="st8"
   version="1.1"
   id="svg80"
   sodipodi:docname="Application Return To School.svg"
   style="font-size:12px;overflow:visible;color-interpolation-filters:sRGB;fill:none;fill-rule:evenodd;stroke-linecap:square;stroke-miterlimit:3"
   inkscape:version="0.92.5 (2060ec1f9f, 2020-04-08)"><metadata
   id="metadata84"><rdf:RDF><cc:Work
       rdf:about=""><dc:format>image/svg+xml</dc:format><dc:type
         rdf:resource="http://purl.org/dc/dcmitype/StillImage" /></cc:Work></rdf:RDF></metadata><sodipodi:namedview
   pagecolor="#ffffff"
   bordercolor="#666666"
   borderopacity="1"
   objecttolerance="10"
   gridtolerance="10"
   guidetolerance="10"
   inkscape:pageopacity="0"
   inkscape:pageshadow="2"
   inkscape:window-width="640"
   inkscape:window-height="480"
   id="namedview82"
   showgrid="false"
   inkscape:zoom="1.963572"
   inkscape:cx="29.232532"
   inkscape:cy="14.258955"
   inkscape:window-x="0"
   inkscape:window-y="0"
   inkscape:window-maximized="0"
   inkscape:current-layer="svg80" />
	<style
   type="text/css"
   id="style2">
	<![CDATA[
		.st1 {fill:url(#grad0-6);stroke:none;stroke-linecap:butt;stroke-width:0.75}
		.st2 {fill:#000000;fill-opacity:0.24;stroke:none;stroke-linecap:butt;stroke-width:0.75}
		.st3 {fill:#000000;fill-opacity:0.32;stroke:none;stroke-linecap:butt;stroke-width:0.75}
		.st4 {fill:url(#grad0-14);stroke:none;stroke-linecap:butt;stroke-width:0.75}
		.st5 {fill:url(#grad0-18);stroke:none;stroke-linecap:butt;stroke-width:0.75}
		.st6 {fill:#49d1e9;stroke:none;stroke-linecap:butt;stroke-width:0.75}
		.st7 {fill:url(#grad0-28);stroke:none;stroke-linecap:butt;stroke-width:0.75}
		.st8 {fill:none;fill-rule:evenodd;font-size:12px;overflow:visible;stroke-linecap:square;stroke-miterlimit:3}
	]]>
	</style>

	<defs
   id="Patterns_And_Gradients">
		<linearGradient
   id="grad0-6"
   x1="0"
   y1="68.023981"
   x2="39.587139"
   y2="68.023981"
   gradientTransform="scale(1.1938221,0.83764577)"
   gradientUnits="userSpaceOnUse">
			<stop
   offset="0"
   stop-color="#2a6980"
   stop-opacity="1"
   id="stop4" />
			<stop
   offset="1"
   stop-color="#0b3239"
   stop-opacity="1"
   id="stop6" />
		</linearGradient>
		<linearGradient
   id="grad0-14"
   x1="0"
   y1="45.343459"
   x2="46.422581"
   y2="45.343459"
   gradientTransform="scale(1.0180391,0.98228059)"
   gradientUnits="userSpaceOnUse">
			<stop
   offset="0"
   stop-color="#007991"
   stop-opacity="1"
   id="stop9" />
			<stop
   offset="1"
   stop-color="#36a0b5"
   stop-opacity="1"
   id="stop11" />
		</linearGradient>
		<linearGradient
   id="grad0-18"
   x1="0"
   y1="27.866787"
   x2="28.529984"
   y2="27.866787"
   gradientTransform="scale(0.62565755,1.5983184)"
   gradientUnits="userSpaceOnUse">
			<stop
   offset="0"
   stop-color="#1bb5d3"
   stop-opacity="1"
   id="stop14" />
			<stop
   offset="1"
   stop-color="#169cb7"
   stop-opacity="1"
   id="stop16" />
		</linearGradient>
		<linearGradient
   id="grad0-28"
   x1="6.6878797"
   y1="53.486133"
   x2="39.414062"
   y2="53.486133"
   gradientTransform="scale(0.96025373,1.0413914)"
   gradientUnits="userSpaceOnUse">
			<stop
   offset="0"
   stop-color="#8aecff"
   stop-opacity="1"
   id="stop19" />
			<stop
   offset="1"
   stop-color="#caf7ff"
   stop-opacity="1"
   id="stop21" />
		</linearGradient>
	</defs>
	<g
   id="g78"
   transform="translate(-12.091351,-5.1024795)">
		<title
   id="title25">Page-1</title>
		<g
   id="group21235-1"
   transform="translate(5.66929,-34.0157)">
			<title
   id="title27">Application Return To School.21235</title>
			<g
   id="group21236-2">
				<title
   id="title29">Sheet.21236</title>
				<g
   id="shape21237-3"
   transform="translate(9.43517,-11.6403)">
					<title
   id="title31">Sheet.21237</title>
					<path
   d="M 41.48,56.98 H 5.78 L 0,66.3 V 90.14 H 47.26 V 66.3 Z"
   class="st1"
   id="path33"
   inkscape:connector-curvature="0"
   style="fill:url(#grad0-6);stroke:none;stroke-width:0.75;stroke-linecap:butt" />
				</g>
				<g
   id="shape21238-7"
   transform="translate(9.43517,-5.21461)">
					<title
   id="title36">Sheet.21238</title>
					<path
   d="m 14.7,60.09 8.93,-15.55 8.93,15.55 h 14.7 V 90.14 H 21 C 9.4,90.14 0,80.86 0,69.41 v -9.32 z"
   class="st2"
   id="path38"
   inkscape:connector-curvature="0"
   style="fill:#000000;fill-opacity:0.23999999;stroke:none;stroke-width:0.75;stroke-linecap:butt" />
				</g>
				<g
   id="shape21239-9"
   transform="translate(9.43517,-4.38549)">
					<title
   id="title41">Sheet.21239</title>
					<path
   d="m 14.7,60.09 8.93,-15.55 8.93,15.55 h 14.7 V 90.14 H 21 C 9.4,90.14 0,80.86 0,69.41 v -9.32 z"
   class="st3"
   id="path43"
   inkscape:connector-curvature="0"
   style="fill:#000000;fill-opacity:0.31999996;stroke:none;stroke-width:0.75;stroke-linecap:butt" />
				</g>
				<g
   id="shape21240-11"
   transform="translate(9.43517,-5.42189)">
					<title
   id="title46">Sheet.21240</title>
					<path
   d="m 14.7,60.09 8.93,-15.55 8.93,15.55 h 14.7 V 90.14 H 21 C 9.4,90.14 0,80.86 0,69.41 v -9.32 z"
   class="st4"
   id="path48"
   inkscape:connector-curvature="0"
   style="fill:url(#grad0-14);stroke:none;stroke-width:0.75;stroke-linecap:butt" />
				</g>
				<g
   id="shape21241-15"
   transform="translate(24.1376,-5.42189)">
					<title
   id="title51">Sheet.21241</title>
					<path
   d="M 17.85,60.09 V 90.14 H 0 V 60.09 L 8.93,44.54 Z"
   class="st5"
   id="path53"
   inkscape:connector-curvature="0"
   style="fill:url(#grad0-18);stroke:none;stroke-width:0.75;stroke-linecap:butt" />
				</g>
				<g
   id="shape21242-19"
   transform="translate(26.2379,-27.1863)">
					<title
   id="title56">Sheet.21242</title>
					<ellipse
   cx="6.8261199"
   cy="83.405098"
   rx="6.8261199"
   ry="6.7366199"
   class="st6"
   id="ellipse58"
   style="fill:#49d1e9;stroke:none;stroke-width:0.75;stroke-linecap:butt" />
				</g>
				<g
   id="shape21243-21"
   transform="translate(0,-0.829122)">
					<title
   id="title61">Sheet.21243</title>
					<path
   d="M 26.24,85.76 C 14.69,85.76 0,85.75 9.44,55.7 c 0,12.72 5.25,14.49 16.8,14.49 v -3.01 c 0,-0.95 1.18,-1.4 1.83,-0.69 l 9.23,10.08 c 0.73,0.79 0.73,1.99 0,2.78 l -9.23,10.09 c -0.65,0.7 -1.83,0.25 -1.83,-0.7 z"
   class="st2"
   id="path63"
   inkscape:connector-curvature="0"
   style="fill:#000000;fill-opacity:0.23999999;stroke:none;stroke-width:0.75;stroke-linecap:butt" />
				</g>
				<g
   id="shape21244-23">
					<title
   id="title66">Sheet.21244</title>
					<path
   d="M 26.24,85.76 C 14.69,85.76 0,85.75 9.44,55.7 c 0,12.72 5.25,14.49 16.8,14.49 v -3.01 c 0,-0.95 1.18,-1.4 1.83,-0.69 l 9.23,10.08 c 0.73,0.79 0.73,1.99 0,2.78 l -9.23,10.09 c -0.65,0.7 -1.83,0.25 -1.83,-0.7 z"
   class="st3"
   id="path68"
   inkscape:connector-curvature="0"
   style="fill:#000000;fill-opacity:0.31999996;stroke:none;stroke-width:0.75;stroke-linecap:butt" />
				</g>
				<g
   id="shape21245-25"
   transform="translate(0,-1.0364)">
					<title
   id="title71">Sheet.21245</title>
					<path
   d="M 26.24,85.76 C 14.69,85.76 0,85.75 9.44,55.7 c 0,12.72 5.25,14.49 16.8,14.49 v -3.01 c 0,-0.95 1.18,-1.4 1.83,-0.69 l 9.23,10.08 c 0.73,0.79 0.73,1.99 0,2.78 l -9.23,10.09 c -0.65,0.7 -1.83,0.25 -1.83,-0.7 z"
   class="st7"
   id="path73"
   inkscape:connector-curvature="0"
   style="fill:url(#grad0-28);stroke:none;stroke-width:0.75;stroke-linecap:butt" />
				</g>
			</g>
		</g>
	</g>
</svg>

<?xml version="1.0" encoding="UTF-8" standalone="no"?>
<!DOCTYPE svg PUBLIC "-//W3C//DTD SVG 1.1//EN" "http://www.w3.org/Graphics/SVG/1.1/DTD/svg11.dtd">
<!-- Generated by Microsoft Visio, SVG Export Application Return To School.svg Page-1 -->
<svg xmlns="http://www.w3.org/2000/svg" xmlns:xlink="http://www.w3.org/1999/xlink" xmlns:ev="http://www.w3.org/2001/xml-events"
		width="0.944882in" height="1.25197in" viewBox="0 0 68.0315 90.1417" xml:space="preserve" color-interpolation-filters="sRGB"
		class="st8">
	<style type="text/css">
	<![CDATA[
		.st1 {fill:url(#grad0-6);stroke:none;stroke-linecap:butt;stroke-width:0.75}
		.st2 {fill:#000000;fill-opacity:0.24;stroke:none;stroke-linecap:butt;stroke-width:0.75}
		.st3 {fill:#000000;fill-opacity:0.32;stroke:none;stroke-linecap:butt;stroke-width:0.75}
		.st4 {fill:url(#grad0-14);stroke:none;stroke-linecap:butt;stroke-width:0.75}
		.st5 {fill:url(#grad0-18);stroke:none;stroke-linecap:butt;stroke-width:0.75}
		.st6 {fill:#49d1e9;stroke:none;stroke-linecap:butt;stroke-width:0.75}
		.st7 {fill:url(#grad0-28);stroke:none;stroke-linecap:butt;stroke-width:0.75}
		.st8 {fill:none;fill-rule:evenodd;font-size:12px;overflow:visible;stroke-linecap:square;stroke-miterlimit:3}
	]]>
	</style>

	<defs id="Patterns_And_Gradients">
		<linearGradient id="grad0-6" x1="0" y1="0" x2="1" y2="0" gradientTransform="rotate(83.9659234282 0.5 0.5)">
			<stop offset="0" stop-color="#2a6980" stop-opacity="1"/>
			<stop offset="1" stop-color="#0b3239" stop-opacity="1"/>
		</linearGradient>
		<linearGradient id="grad0-14" x1="0" y1="0" x2="1" y2="0" gradientTransform="rotate(-95.609300818688 0.5 0.5)">
			<stop offset="0" stop-color="#007991" stop-opacity="1"/>
			<stop offset="1" stop-color="#36a0b5" stop-opacity="1"/>
		</linearGradient>
		<linearGradient id="grad0-18" x1="0" y1="0" x2="1" y2="0" gradientTransform="rotate(90 0.5 0.5)">
			<stop offset="0" stop-color="#1bb5d3" stop-opacity="1"/>
			<stop offset="1" stop-color="#169cb7" stop-opacity="1"/>
		</linearGradient>
		<linearGradient id="grad0-28" x1="0" y1="0" x2="1" y2="0" gradientTransform="rotate(-109.04102776408 0.5 0.5)">
			<stop offset="0" stop-color="#8aecff" stop-opacity="1"/>
			<stop offset="1" stop-color="#caf7ff" stop-opacity="1"/>
		</linearGradient>
	</defs>
	<g>
		<title>Page-1</title>
		<g id="group20760-1" transform="translate(5.66929,-34.0157)">
			<title>Application Return To School.20760</title>
			<g id="group20761-2">
				<title>Sheet.20761</title>
				<g id="shape20762-3" transform="translate(9.43517,-11.6403)">
					<title>Sheet.20762</title>
					<path d="M41.48 56.98 L5.78 56.98 L0 66.3 L0 90.14 L47.26 90.14 L47.26 66.3 L41.48 56.98 Z" class="st1"/>
				</g>
				<g id="shape20763-7" transform="translate(9.43517,-5.21461)">
					<title>Sheet.20763</title>
					<path d="M14.7 60.09 L23.63 44.54 L32.56 60.09 L47.26 60.09 L47.26 90.14 L21 90.14 C9.4 90.14 0 80.86 0 69.41
								 L0 60.09 L14.7 60.09 Z" class="st2"/>
				</g>
				<g id="shape20764-9" transform="translate(9.43517,-4.38549)">
					<title>Sheet.20764</title>
					<path d="M14.7 60.09 L23.63 44.54 L32.56 60.09 L47.26 60.09 L47.26 90.14 L21 90.14 C9.4 90.14 0 80.86 0 69.41
								 L0 60.09 L14.7 60.09 Z" class="st3"/>
				</g>
				<g id="shape20765-11" transform="translate(9.43517,-5.42189)">
					<title>Sheet.20765</title>
					<path d="M14.7 60.09 L23.63 44.54 L32.56 60.09 L47.26 60.09 L47.26 90.14 L21 90.14 C9.4 90.14 0 80.86 0 69.41
								 L0 60.09 L14.7 60.09 Z" class="st4"/>
				</g>
				<g id="shape20766-15" transform="translate(24.1376,-5.42189)">
					<title>Sheet.20766</title>
					<path d="M17.85 60.09 L17.85 90.14 L0 90.14 L0 60.09 L8.93 44.54 L17.85 60.09 Z" class="st5"/>
				</g>
				<g id="shape20767-19" transform="translate(26.2379,-27.1863)">
					<title>Sheet.20767</title>
					<ellipse cx="6.82612" cy="83.4051" rx="6.82612" ry="6.73662" class="st6"/>
				</g>
				<g id="shape20768-21" transform="translate(0,-0.829122)">
					<title>Sheet.20768</title>
					<path d="M26.24 85.76 C14.69 85.76 0 85.75 9.44 55.7 C9.44 68.42 14.69 70.19 26.24 70.19 L26.24 67.18 C26.24
								 66.23 27.42 65.78 28.07 66.49 L37.3 76.57 C38.03 77.36 38.03 78.56 37.3 79.35 L28.07 89.44 C27.42
								 90.14 26.24 89.69 26.24 88.74 L26.24 85.76 Z" class="st2"/>
				</g>
				<g id="shape20769-23">
					<title>Sheet.20769</title>
					<path d="M26.24 85.76 C14.69 85.76 0 85.75 9.44 55.7 C9.44 68.42 14.69 70.19 26.24 70.19 L26.24 67.18 C26.24
								 66.23 27.42 65.78 28.07 66.49 L37.3 76.57 C38.03 77.36 38.03 78.56 37.3 79.35 L28.07 89.44 C27.42
								 90.14 26.24 89.69 26.24 88.74 L26.24 85.76 Z" class="st3"/>
				</g>
				<g id="shape20770-25" transform="translate(0,-1.0364)">
					<title>Sheet.20770</title>
					<path d="M26.24 85.76 C14.69 85.76 0 85.75 9.44 55.7 C9.44 68.42 14.69 70.19 26.24 70.19 L26.24 67.18 C26.24
								 66.23 27.42 65.78 28.07 66.49 L37.3 76.57 C38.03 77.36 38.03 78.56 37.3 79.35 L28.07 89.44 C27.42
								 90.14 26.24 89.69 26.24 88.74 L26.24 85.76 Z" class="st7"/>
				</g>
			</g>
		</g>
	</g>
</svg>
